app/dist/common/images/podium-minerals-ltd.svg

<svg height="18" viewBox="0 0 18 18" width="18" xmlns="http://www.w3.org/2000/svg"><path d="m0 0h18v18h-18z" fill="#013140"/><path d="m5.95 13h1.89v-3.1l-5.84-4.72z" fill="#027d9b"/><path d="m8.05 9.67v3.33c.24 0 .53-.4.63-.6v-3.11l-6.66-4.29z" fill="#6d8d9e"/><path d="m12.05 13h-1.89v-3.1l5.84-4.72z" fill="#027d9b"/><path d="m9.95 9.67v3.33c-.24 0-.53-.4-.63-.6v-3.11l6.66-4.29z" fill="#6d8d9e"/></svg>

<!-- by TradingView --><svg width="18" height="18" viewBox="0 0 18 18" xmlns="http://www.w3.org/2000/svg"><path fill="#013140" d="M0 0h18v18H0z"/><path d="M5.95 13h1.89V9.9L2 5.18 5.95 13Z" fill="#027D9B"/><path d="M8.05 9.67V13c.24 0 .53-.4.63-.6V9.29L2.02 5l6.03 4.67Z" fill="#6D8D9E"/><path d="M12.05 13h-1.89V9.9L16 5.18 12.05 13Z" fill="#027D9B"/><path d="M9.95 9.67V13c-.24 0-.53-.4-.63-.6V9.29L15.98 5 9.95 9.67Z" fill="#6D8D9E"/></svg>
